!!!SOCIAL_FUNCTION:	songs of personal narratives concerning war
!!!PDT:	1918

Specific Region: Dakotas, Minnesota, Montana, Nebraska
!!!REG: Dakotas and Montana
!!!LING_GROUP: Siouan
!!!LANG: Tone
!!!OTL@ENG: A Prairie Fire
!!!ONM: No. 157
**kern
*Imale
*clefF4
*k[f#c#]
*M3/4
*MM72
8.e
16c#
4.e
8c#
=1||
*M2/4
8.e
16c#
8.e
16c#
=2
12c#
12B
12B
8.A
16F#
=3
8B
8B
8.d
16B
=4
4d
8e
8d
=5
16B
8.A
16A
8.G
=6
12A
12G
12G
16D
8D
16D
=7
16D
[8.D
8D]
8e
=8||
*M3/4
12e
12c#
12e
4e
8.c#
16e
=9
12e
12c#
12e
16c#
16c#
16B
16A
16A
16F#
16B
16B
=10||
*M2/4
8.d
16B
16.d
32d
16.e
32d
=11
8d
16B
16B
8A
8G
=12
12A
12G
12G
16D
8D
16D
=13
16D
8.D
4r
==
*-
!!!CNT: Native American -- Sioux
!!!MRD: 1911/07//-1914///
!!!OCL: Frances Densmore
!!!YOR1: Teton Sioux Music, Bulletin 61,
!!!YOR2: Bureau of American Ethnology, Smithsonian Institution
!!!PPR: Government Printing Office
!!!PPP: Washington, D.C.
!!!PDT: 1918///
!!!ENC: Craig Stuart Sapp
!!!END: 2002/03/25/
!!!EEV: 2002/03/31/
!!!AGN: War Song/Song of Personal Narrative Concerning War
!!!MPN@@SIO: Wi'yaka-wangzhi'la
!!!MPN@ENG: One Feather
!!!TXO: Teton Sioux
!!!MLC: Standing Rock Reservation, South Dakota, United States of America
!!!ARL: 45.9/-100.7#
!!!catalog: Catalogue No. 624
!!!PPG: 383
!!!EFL: 162/245
!!!VTS: 3863446836
